svg/fluentui-system-icons/ic_fluent_box_search_24_filled.svg

<svg width="24" height="24" viewBox="0 0 24 24" fill="none" xmlns="http://www.w3.org/2000/svg">
<path d="M13.4089 2.51203C12.5053 2.14573 11.4947 2.14573 10.5911 2.51203L8.40058 3.40008L17.9928 7.13038L21.3671 5.82666C21.2312 5.71392 21.0769 5.62067 20.9075 5.552L13.4089 2.51203ZM22 7.19021L12.7498 10.7642V21.6873C12.9736 21.6416 13.1943 21.5753 13.4089 21.4883L20.9075 18.4483C21.5679 18.1806 22 17.5391 22 16.8265V7.19021ZM11.2498 10.7642V20.7749L9.42531 18.9504C9.79312 18.2126 10 17.3805 10 16.5C10 13.4624 7.53757 11 4.5 11C3.59978 11 2.75007 11.2163 2 11.5997V7.19037L11.2498 10.7642ZM2.63273 5.82677L11.9998 9.44586L15.9168 7.93248L6.37434 4.22153L3.09252 5.552C2.92308 5.62069 2.76867 5.71398 2.63273 5.82677ZM4.5 21C5.47187 21 6.37179 20.6919 7.1074 20.1681L9.71967 22.7803C10.0126 23.0732 10.4874 23.0732 10.7803 22.7803C11.0732 22.4874 11.0732 22.0126 10.7803 21.7197L8.16806 19.1074C8.69191 18.3718 9 17.4719 9 16.5C9 14.0147 6.98528 12 4.5 12C2.01472 12 0 14.0147 0 16.5C0 18.9853 2.01472 21 4.5 21ZM4.5 19.5C2.84315 19.5 1.5 18.1569 1.5 16.5C1.5 14.8431 2.84315 13.5 4.5 13.5C6.15685 13.5 7.5 14.8431 7.5 16.5C7.5 18.1569 6.15685 19.5 4.5 19.5Z" fill="#212121"/>
</svg>

<svg xmlns="http://www.w3.org/2000/svg" width="24" height="24"><path d="M13.409 2.512a3.75 3.75 0 0 0-2.818 0l-2.19.888 9.592 3.73 3.374-1.303a1.747 1.747 0 0 0-.46-.275l-7.498-3.04ZM22 7.19l-9.25 3.574v10.923c.224-.045.444-.112.659-.199l7.498-3.04A1.75 1.75 0 0 0 22 16.826V7.19Zm-10.75 3.574v10.01L9.425 18.95A5.5 5.5 0 0 0 2 11.6V7.19l9.25 3.574ZM2.633 5.827 12 9.446l3.917-1.514-9.543-3.71-3.281 1.33c-.17.069-.324.162-.46.275ZM4.5 21a4.48 4.48 0 0 0 2.607-.832L9.72 22.78a.75.75 0 1 0 1.06-1.06l-2.612-2.613A4.5 4.5 0 1 0 4.5 21Zm0-1.5a3 3 0 1 1 0-6 3 3 0 0 1 0 6Z"/></svg>
